thulsonASU/Drag_n_teach-ROS-Pkg-for-mycobot_280_M5/catkin_ws/src/drag_n_teach/src/joint_vals.csv
joint2_to_joint1,joint3_to_joint2,joint4_to_joint3,joint5_to_joint4,joint6_to_joint5,joint6output_to_joint6,joint2_to_joint1_vel,joint3_to_joint2_vel,joint4_to_joint3_vel,joint5_to_joint4_vel,joint6_to_joint5_vel,joint6output_to_joint6_vel
-0.0004613180000001549,-0.0004613180000001549,-0.0004613180000001549,-0.0004613180000001549,-0.0004613180000001549,-0.0004613180000001549,0.0,0.0,0.0,0.0,0.0,0.0
-0.0502899042139994,-0.07235907227681516,-0.050031747752029454,0.0034369820891808883,-0.0004957336998166915,-0.000516002189351437,-0.22399826440699444,-0.323207487838426,-0.22283775386835764,0.017524327308103674,-0.00015471153434191712,-0.0002458260295121369
-0.10011849042799864,-0.14425682655363017,-0.09960217750405875,0.007335282178361931,-0.0005301493996332281,-0.0005706863787027191,-0.3617562687487281,-0.5219787534587164,-0.3598820490380878,0.028301715980229153,-0.00024985848682394985,-0.0003970080189373491
-0.14994707664199788,-0.21615458083044517,-0.14917260725608805,0.011233582267542975,-0.0005645650994497648,-0.0006253705680540012,-0.44087722193025913,-0.6361425153114437,-0.4385930852042471,0.03449168126479499,-0.00030450589267647224,-0.00048383900320110086
-0.19977566285599713,-0.2880523351072602,-0.19874303700811735,0.015131882356724018,-0.0005989807992663014,-0.0006800547574052833,-0.5053202452985883,-0.7291274665418974,-0.5027022363081702,0.03953333030265739,-0.0003490155188976421,-0.0005545617501220795
-0.24960424906999637,-0.3599500893840752,-0.24831346676014665,0.01903018244590506,-0.0006333964990828379,-0.0007347389467565655,-0.5601301162916873,-0.8082127253465837,-0.5572281433470074,0.04382133727244718,-0.0003868717016715301,-0.0006147126312013399
-0.2994328352839956,-0.4318478436608902,-0.29788389651217595,0.022928482535086104,-0.0006678121988993746,-0.0007894231361078475,-0.6126060589751969,-0.8839303549076489,-0.6094322139038721,0.047926751204209736,-0.000423115882536491,-0.0006723021516779589
-0.34926142149799483,-0.5037455979377051,-0.34745432626420525,0.026826782624267142,-0.0007022278987159112,-0.0008441073254591297,-0.6184872589559436,-0.8924163486553456,-0.6152829440299725,0.04838686223989061,-0.000427177920584874,-0.0006787564518657811
-0.3990900077119941,-0.5756433522145202,-0.39702475601623455,0.03072508271344819,-0.0007366435985324478,-0.0008987915148104118,-0.5713887316291498,-0.8244578011260503,-0.568428429028282,0.04470214615162334,-0.00039464782287512766,-0.0006270683550884865
-0.4489185939259933,-0.6475411064913352,-0.44659518576826385,0.03462338280262923,-0.0007710592983489843,-0.0009534757041616939,-0.5171757473217211,-0.7462337911650112,-0.5144963162703997,0.04046083614028198,-0.0003572038988980333,-0.0005675725249954265
-0.4987471801399926,-0.7194388607681502,-0.49616561552029315,0.03852168289181027,-0.000805474998165521,-0.001008159893512976,-0.44950416978805413,-0.6485903534775683,-0.4471753377875867,0.03516660371711927,-0.00031046436893208355,-0.0004933066137841756
-0.5485757663539917,-0.7913366150449652,-0.5457360452723224,0.04241998298099132,-0.0008398906979820576,-0.001062844082864258,-0.36194273094764984,-0.5222478000919565,-0.3600675451967258,0.028316303703098997,-0.00024998727287936116,-0.0003972126511568719
-0.5984043525679911,-0.8632343693217802,-0.5953064750243517,0.04631828307017236,-0.0008743063977985942,-0.00111752827221554,-0.22194191495273505,-0.3202403776110826,-0.22079205813598785,0.017363450432598918,-0.00015329125110867913,-0.00024356929675142385
-0.6482329387819903,-0.9351321235985952,-0.644876904776381,0.0502165831593534,-0.0009087220976151309,-0.0011722124615668223,0.0,0.0,0.0,0.0,0.0,0.0
-0.6482329387819903,-0.9351321235985952,-0.644876904776381,0.0502165831593534,-0.0009087220976151309,-0.0011722124615668223,0.0,0.0,0.0,0.0,0.0,0.0
-0.6480933270102683,-0.9339015439369583,-0.648101221078642,0.05293593087722586,-0.0004610060953037419,-0.0004615581178565905,0.00027567595443065367,0.00139857850953784,-0.15378876449765802,0.14615345090018558,0.0008839985108166143,0.001403233426292639
-0.6480933220740615,-0.9345561277816715,-0.7416778469733168,0.1422989203760283,-0.000461026355903677,-0.0004615439472657647,2.3457173878193478e-08,-0.03656993593991945,-0.3824336918592466,0.3958747005340754,-9.581493956066635e-08,6.780349874690968e-08
-0.6480933171362039,-0.94574735400678,-0.8156835590291265,0.2226276384159722,-0.0004610464769310975,-0.0004615296258415837,3.419710649212421e-08,-0.10832163950825555,-0.45589856896007175,0.5305415121031433,-1.3884765066452639e-07,9.948146719758935e-08
-0.6480933121885523,-0.965195105918307,-0.8747050485554783,0.29622865961282685,-0.00046106650415499314,-0.00046151519624632335,3.9871844617484866e-08,-0.18655871005245345,-0.42093874521997676,0.5683071628969598,-1.6081734225866687e-07,1.1662547592038299e-07
-0.6480933072311249,-0.99160702239125,-0.9211450516841255,0.3642123589732065,-0.00046108643703360086,-0.0004615006589575529,4.1557914699167795e-08,-0.24599354601900864,-0.3436006428437953,0.5488230107558305,-1.6655092461441127e-07,1.2218484028279998e-07
-0.6480933022639538,-1.024115150724388,-0.9564391686826195,0.42714638406357847,-0.00046110627494509704,-0.0004614860145824856,4.065347828359724e-08,-0.2882470858267013,-0.24640737901998522,0.49484995314488006,-1.618099081890015e-07,1.2017577820626445e-07
-0.6480932972870715,-1.0620860893735207,-0.981470547100924,0.4852804808897523,-0.00046112601727201684,-0.0004614712637328641,3.6706444843206086e-08,-0.2960228695668802,-0.15274741364086064,0.4128961324582897,-1.451685699472866e-07,1.0904481631412815e-07
-0.6480932923005084,-1.105030593181021,-0.9967745402947162,0.5386607576497782,-0.0004611456634008696,-0.00046145640702293706,3.787502969963914e-08,-0.3456634484574502,-0.0752907128631026,0.3840187610529857,-1.4863713684513684e-07,1.1317390996350225e-07
-0.6480932873042954,-1.1525604509490701,-1.002644808297059,0.5871926631788092,-0.00046116521272203544,-0.0004614414450708829,4.524698086388046e-08,-0.4502161567662629,-0.00907652918180719,0.4152490826761033,-1.7640619251479648e-07,1.3585709736381167e-07
-0.6480932822984625,-1.2043711561584152,-0.999186090353479,0.6306764302031198,-0.00046118466463041836,-0.0004614263784973027,4.9130217294136886e-08,-0.528637346576266,0.08168491113938908,0.399220250604392,-1.902247168933812e-07,1.4825435318582297e-07
-0.6480932772830402,-1.2602411659030848,-0.9863322844089593,0.6688244137619497,-0.0004612040185243962,-0.00046141120792653515,4.776593120951743e-08,-0.5490501640265846,0.16503166604761538,0.33769560672643756,-1.8372246154745228e-07,1.44811497588455e-07
-0.6480932722580572,-1.3200445052818923,-0.9638355600196242,0.7012628085100088,-0.0004612232738068806,-0.0004613959339853423,4.5626539843785784e-08,-0.56072166745358,0.25101453954010555,0.26554683546027796,-1.742069305076372e-07,1.3902878878724141e-07
-0.648093267223543,-1.3837777820679824,-0.9312230390942857,0.7275153441290717,-0.0004612424298843758,-0.00046138055730451715,4.44157178853647e-08,-0.5788685458225431,0.332970862822094,0.20298740297837964,-1.6843218403670457e-07,1.3596186912645187e-07
-0.6480932621795261,-1.451608119333895,-0.8877061089213815,0.7469605309805725,-0.00046126148616784836,-0.00046136507851841707,4.254347108403209e-08,-0.5907941349372523,0.4185088516778377,0.13126344743694388,-1.6015001973480387e-07,1.308628063915648e-07
-0.6480932571260346,-1.5239590698407468,-0.832005105272828,0.7587422575973164,-0.0004612804420722666,-0.00046134949826277403,3.7462809201485955e-08,-0.5528625307147976,0.45773323971547414,0.059068654478672336,-1.4009462466832975e-07,1.1572656926865716e-07
-0.6480932520630959,-1.6016777816341097,-0.7619962389597682,0.7615838828357906,-0.0004612992970165949,-0.0004613338171772849,2.1951707070993014e-08,-0.34506328000626113,0.3246913212942649,-0.0007248161098290396,-8.158952220418966e-08,6.807320100857861e-08
-0.6480932469907368,-1.6864060330629367,-0.6739176614488509,0.7533653365121898,-0.0004613180504240096,-0.00046131803590447417,0.0,0.0,0.0,0.0,0.0,0.0
-0.6480932469907368,-1.6864060330629367,-0.6739176614488509,0.7533653365121898,-0.0004613180504240096,-0.00046131803590447417,0.0,0.0,0.0,0.0,0.0,0.0
-0.6480932469907368,-1.6864060330629367,-0.6739176614488509,0.7533653365121898,-0.0004613180504240096,-0.00046131803590447417,0.0,0.0,0.0,0.0,0.0,0.0
-0.6480932469916395,-1.6130372511263795,-0.7342294766347827,0.7426496896689999,-0.00046131804581082557,-0.0004613180327604038,-6.165558597227798e-12,0.4851349212450755,-0.3661417061029182,-0.1028880597859535,3.1706868733554754e-11,2.1725180062591925e-11
-0.6480932469925288,-1.5456401966769024,-0.7796540819205117,0.7230185604147739,-0.00046131804120548765,-0.00046131802958633686,-6.8640931805816834e-12,0.5013168038410282,-0.29622512467134016,-0.18687628783618462,3.580656135926627e-11,2.4797909559440452e-11
-0.648093246993406,-1.483352808401409,-0.8123928964419002,0.6958113065696219,-0.0004613180366052117,-0.00046131802638924566,-7.71326805452471e-12,0.5309448500712328,-0.2400142767988345,-0.270199929207335,4.07097645182506e-11,2.8406412902074894e-11
-0.6480932469942708,-1.4257958319102328,-0.8336611864148367,0.6618639399606199,-0.00046131803201005477,-0.00046131802316948386,-7.873022019348873e-12,0.5055570320748743,-0.14298934641802216,-0.3410961744946801,4.2115642003980345e-11,2.963815475632592e-11
-0.6480932469951236,-1.3728578193195038,-0.8441376104440719,0.6217436713083637,-0.0004613180274201019,-0.00046131801992676646,-8.129588955051798e-12,0.48568383039169905,-0.050490380158037904,-0.4127217309490456,4.4027960223866623e-11,3.12324069228438e-11
-0.6480932469959648,-1.324613505200455,-0.8441284918314175,0.5758315584856135,-0.00046131802283556965,-0.0004613180166611812,-8.031745045278525e-12,0.44002870360974355,0.05083574863328779,-0.4683545080208079,4.405040934033631e-11,3.149892336095617e-11
-0.6480932469967945,-1.2812871175072083,-0.8336340389745421,0.5243520378442547,-0.0004613180182564615,-0.0004613180133743359,-7.920607043166015e-12,0.3912485613029367,0.15238033335200285,-0.5211230046620605,4.3990004115174254e-11,3.170224836631941e-11
-0.6480932469976127,-1.2432462392900028,-0.8123482034947769,0.46736664405642653,-0.00046131801368292264,-0.0004613180100649629,-7.538634393028258e-12,0.3266386120575649,0.24909104124265696,-0.5540124679366344,4.239678030649407e-11,3.079639519918954e-11
-0.6480932469984196,-1.2110267482373482,-0.7795919586668512,0.4047322280852735,-0.00046131800911507144,-0.0004613180067334003,-6.3001558593360084e-12,0.23091712036169515,0.2997372289417157,-0.5122681434867304,3.585169577783194e-11,2.6234538434555708e-11
-0.6480932469992157,-1.18540453828502,-0.7341471998592309,0.3360065792338988,-0.00046131800455297855,-0.00046131800338033464,-3.671974942149433e-12,0.10867050450965131,0.22935734123889606,-0.32718795758365593,2.111411749023738e-11,1.5550624314250922e-11
-0.6480932470000011,-1.1675605621191048,-0.6738921612831762,0.26024888440097665,-0.00046131799999678307,-0.0004613180000065367,0.0,0.0,0.0,0.0,0.0,0.0
-0.6480932470000011,-1.1675605621191048,-0.6738921612831762,0.26024888440097665,-0.00046131799999678307,-0.0004613180000065367,0.0,0.0,0.0,0.0,0.0,0.0
-0.6480932470000011,-1.1675605621191048,-0.6738921612831762,0.26024888440097665,-0.00046131799999678307,-0.0004613180000065367,0.0,0.0,0.0,0.0,0.0,0.0
-0.6254894548879971,-1.0821296655635981,-0.8526280651771084,0.35356008299078423,-0.0005862147054424995,-0.012460724660413477,0.14350449820374261,0.4791211814446872,-1.0,0.5209196547108037,-0.0007342689458733299,-0.0705679606457917
-0.6018038238593626,-1.011273881489759,-1.0001614221471093,0.430244594854011,-0.0006997799762423886,-0.023378352313679573,0.17698217509419983,0.48125061560585114,-1.0,0.5188012079570696,-0.0007808009942392796,-0.07508859880168699
-0.5769778896086157,-0.9493782942612669,-1.1285138180748004,0.496708670085208,-0.0008014147979330568,-0.03315573960627047,0.20976741723628728,0.4831247561075609,-1.0,0.5169328861251272,-0.0007827546525266446,-0.07531349739242071
-0.550945851054894,-0.8936544945681922,-1.2436413859755753,0.556119192890353,-0.0008904852297246621,-0.04172708794735687,0.24287915435194374,0.4848715085182178,-1.0,0.5151903133595266,-0.0007470580522153375,-0.07193158370920259
-0.5236417782357304,-0.842575724193387,-1.348801207799195,0.6102070769101396,-0.0009662475002090782,-0.049026472091280276,0.27710952830685154,0.48657116246537924,-1.0,0.5134921657812981,-0.0006781239733311853,-0.06535225757666174
-0.4949981247401512,-0.7951807105913532,-1.4460382691386007,0.6600551225489173,-0.001028070738018542,-0.05498634786015759,0.3129862009243388,0.488276202939499,-1.0,0.5117813166942096,-0.0005781112929193028,-0.055744737710421766
-0.4649464914987202,-0.7508251013500884,-1.5367199585964673,0.7063860411761113,-0.0010752636173408875,-0.05953831940260908,0.3509834584852615,0.49002511504577095,-1.0,0.5100215529380705,-0.0004475320797113311,-0.04317433374536642
-0.4334185550423946,-0.7090582630121612,-1.6217995314931506,0.7497021772149721,-0.001107137887346916,-0.06261406646258548,0.39156811278685155,0.4918516057781931,-1.0,0.508179271618636,-0.0002863487891284219,-0.027634678487777196
-0.40034728199028374,-0.6695564032857033,-1.701959443237131,0.7903619746991817,-0.001123014109925187,-0.0641465588983927,0.43523004056274633,0.4937864716967776,-1.0,0.5062240272041695,-9.388779809114047e-05,-0.009064087303972833
-0.3656684708931099,-0.6320836432836564,-1.7776949252772047,0.828624637890277,-0.001122235451412832,-0.06407159848954608,0.48250843525473436,0.49585915743255016,-1.0,0.5041270049230205,0.0001310613333256155,0.01264671700265017
-0.32932267409080723,-0.5964681294602614,-1.8493654963136408,0.8646777672880328,-0.001104185836192723,-0.062329740728855804,0.5340186265417168,0.498098520123701,-1.0,0.5018602903426193,0.0003902239322971568,0.03765258205400247
-0.2912575469255998,-0.5625867872546115,-1.9172281485221803,0.8986553122177328,-0.001068313197894104,-0.058868643933380746,0.575436851995182,0.48835567913847044,-0.9757328438033743,0.4873089654000519,0.0006654027232677556,0.06418338281515908
-0.25143066084694154,-0.530355313699152,-1.9814595357314866,0.9306497632899169,-0.0010141584842244084,-0.05364588220361551,0.6021942129736078,0.46485653248883535,-0.9238947025622769,0.4589467554068004,0.0009382550579219219,0.09045590309368028
-0.20981279675538902,-0.49972148689587376,-2.0421713213135395,0.9607208191670178,-0.0009413908586451788,-0.04663223857065459,0.6274230631695599,0.44044158351152357,-0.8703506024253955,0.4297993397539256,0.001212229300844054,0.11679253205977624
-0.16639170219865676,-0.4706606440242131,-2.0994211829101763,0.988901874855039,-0.0008498491543190797,-0.03781546194151991,0.6511587963427394,0.4155051294833946,-0.8159718073783537,0.4003455920794593,0.0014821122367418907,0.14268574990903832
-0.12117624782677731,-0.4431725987857692,-2.153221058886828,1.0152051854399808,-0.0007395890237762541,-0.02720442324951046,0.6704106546613045,0.3883064101813898,-0.7574351163474478,0.3690101615659625,0.0017369676529176755,0.1670627097243747
-0.07420086156762144,-0.41727980943981396,-2.203544140144241,1.0396277027248362,-0.0006109031020647129,-0.014833550081796225,0.6889229213850561,0.3612648665369546,-0.6995716699890018,0.33819706465308885,0.0019810987984107023,0.19039370989487758
-0.025529975134076476,-0.39302467891763426,-2.2503288644718737,1.0621498375046567,-0.0004645029508294657,-0.000767269597699176,0.7059491453710125,0.3341093798916339,-0.6419825424003931,0.30777788748717977,0.002208003629266853,0.21207567657325588
0.024737693899993526,-0.3704696847306489,-2.2934863541917716,1.0827464503902124,-0.00030137946858705187,0.014895705102297945,0.7201387231929699,0.3060026786461125,-0.5831748525146745,0.2771058074042123,0.002411083613040166,0.2314554237831619
0.07646560198903012,-0.3496950146637931,-2.332904309378702,1.1013862294275056,-0.00012296796274147688,0.03201883813489003,0.7307492171122396,0.27691533967624704,-0.5232815420722602,0.246339049388775,0.0025825767621237058,0.2478400129855584
0.12947694517294894,-0.33079685802853637,-2.3684528866603047,1.1180362883468418,6.885156495908662e-05,0.05042533591227339,0.7341944307263405,0.24567434960644746,-0.46026206586460805,0.21460869825167903,0.002705660645818902,0.2596473684359717
0.18355391241986696,-0.3138846957729675,-2.399990769229899,1.1326654685091186,0.000271746075276727,0.06989740053644425,0.7272865468024858,0.21198079207629253,-0.39378282821006844,0.18187672858208084,0.0027633666424105347,0.2652757507096747
0.23843913110823117,-0.2990774512141153,-2.4273717774041583,1.1452470347642714,0.0004829481701423859,0.09017767512655708,0.7323451278357768,0.1816752040713785,-0.3347322968932154,0.15319191111842273,0.002839431029867172,0.27278657357322816
0.2938397029311093,-0.28649825734392775,-2.4504519226822157,1.1557604330935733,0.0006993066559302387,0.11097327932488223,0.7304502511572968,0.15043460789189853,-0.2752036240215464,0.12496297365423488,0.00285877624358599,0.27496756070110384
0.3494340097827778,-0.27626779798652085,-2.469096664481462,1.1641918370443172,0.0009173704414069891,0.13196261454116653,0.7379793480671761,0.11914876609261507,-0.2166548465406227,0.0977638291921431,0.00288538415774875,0.2779930355222289
0.4048811552330387,-0.2684964983616989,-2.483188003595347,1.1705334026167682,0.0011335025260471845,0.15280480458780013,0.7277111033092704,0.08627724348859217,-0.15629865006259536,0.07032938622977233,0.002813264675609427,0.27158209401493116
0.4598325377557398,-0.2632762281283978,-2.492630958496937,1.1747814412858981,0.0013440166352192025,0.17315126794681715,0.7008352242892572,0.05003765842475962,-0.09063186801032676,0.040939465021701905,0.002645775278212266,0.2560479705883643
0.5139446962476473,-0.2606725497182779,-2.497358957476831,1.1769340871491638,0.001545324096414339,0.19265856232428785,0.6719720327971462,0.016697610754420125,-0.03069830943468067,0.014367487085759209,0.0024503014491569827,0.2377554659585562
0.566892308265725,-0.2607187127567383,-2.4973377144315925,1.1769892180973154,0.0017340771967253778,0.21100138202442828,0.6005546389106529,-0.015000255757870451,0.026199506363093483,-0.010848470192791013,0.002084446252053458,0.2028384477964914
0.6183801308829394,-0.2634124782898531,-2.4925672730598136,1.1749434050836134,0.0019072931470157464,0.22788449817532128,0.5985704863205341,-0.04852134202713068,0.08651665151280082,-0.03763407612524693,0.001935400863068554,0.18892889657391815
0.6681527856156906,-0.26871637445934593,-2.483082030873446,1.1707922764121885,0.002062449146711797,0.24305254327640752,0.6310181470040432,-0.08525433934422685,0.1531451105073448,-0.06751254888571617,0.0018747903615058588,0.1835282405070775
0.7160015898322576,-0.2765613426986302,-2.4689487480043693,1.16453226811847,0.002197538868587987,0.2562968425457033,0.593139087064747,-0.11426241630073826,0.20673559566830418,-0.09213346534404365,0.0015790268017855024,0.15498803006786344
0.7617680539496087,-0.28685305944390455,-2.450262695401496,1.1561631756655544,0.0023110909350980736,0.26745891129909644,0.5184753827720504,-0.13211183564641743,0.24093666053681667,-0.10855437280036759,0.0011927853034024145,0.11736223996244197
0.8053441069209749,-0.29947981621118347,-2.4271422635763242,1.1456907076096547,0.002402152528259982,0.27643068080895217,0.4903694120205797,-0.1595131014750446,0.293571956721145,-0.13384449800178594,0.0009141519422379985,0.09009762790896567
0.8466694641070159,-0.31432057576115413,-2.3997222472152075,1.1331275665230924,0.002470318468022582,0.283151865176203,0.5034334635097863,-0.1995638208979606,0.37058458179649645,-0.17084988736994233,0.0007051327981098897,0.06961537949945855
0.88572696599947,-0.33125343120936196,-2.3681476907727457,1.1184971558976828,0.0025153452241765866,0.28760530719592625,0.4996115618907132,-0.2364177728077414,0.4430426857194797,-0.20651376246615685,0.0004404148449187873,0.04358185053974508
0.92253627503572,-0.35016054464521945,-2.332564922999704,1.1018271910476194,0.00253760961311591,0.28981066457535365,0.48477739244417806,-0.2695548271172711,0.5097213161974656,-0.24012779009734272,0.00015001611011621573,0.014869526874710829
0.9571472255771876,-0.37093424024186517,-2.293115735545021,1.0831517667726225,0.002537666668266146,0.28981776838591006,0.46483263877565306,-0.3003328335508539,0.5729249619808192,-0.2726292386017226,-0.00014949960541170388,-0.014778629787628526
0.9896330242454494,-0.3934802738513335,-2.2499303858171236,1.062507083603202,0.002516256172436318,0.2876998217468654,0.44707468980223386,-0.3326885866708531,0.6399732314744871,-0.3073974998577,-0.0004528461710175241,-0.04478189486048967
1.0200839170903486,-0.4177203594465195,-2.203121512631679,1.0399278593699082,0.0024742559035065754,0.2835470670815593,0.4277048315275958,-0.3636146904535059,0.7049290774597797,-0.3414990885436694,-0.0007525486499989225,-0.07435545236161564
1.0486015936557718,-0.44359395335604046,-2.152778562845396,1.0154435056487212,0.0024126317157331305,0.2774611903187403,0.40507592275612614,-0.3914896012093323,0.7645017206261809,-0.37326134374671577,-0.0010417958982336995,-0.10278858683676653
1.075294462679247,-0.4710596489303676,-2.0989625489127985,0.989074246075343,0.0023323977760473106,0.269550596659776,0.38303241256099774,-0.41895158089211737,0.8236237785673961,-0.40497723210012915,-0.0013205756531198974,-0.13005478300828735
1.100273825633311,-0.5000965120523039,-2.0417008394121736,0.9608272112944942,0.0022345862036326734,0.2599265841377235,0.3602839761155663,-0.4444132424704935,0.8790541084496493,-0.43498603612595166,-0.0015818148644597845,-0.15535541074171277
1.1236509281109932,-0.5307058307464433,-1.980981955673884,0.9306935086100439,0.0021201031102599703,0.24870039744464115,0.33796611828133905,-0.4691003002876374,0.9331336495878995,-0.4644095156983945,-0.0018253755104515148,-0.17883371026674305
1.145534620938625,-0.5629126677197641,-1.9167476091858824,0.8986397665389378,0.0019901700986448617,0.23598087979921875,0.31470501623873104,-0.49037483717712627,0.980490172241408,-0.4905116794839075,-0.0020365475293147896,-0.19909158675846567
1.1660299339812237,-0.5967698372939771,-1.8488864299187924,0.8646085963796677,0.0018456782179909423,0.22187305951118708,0.28501508803866404,-0.4977829294577605,1.0,-0.5026077439678036,-0.002167709378805788,-0.21136372271733705
1.18523691396449,-0.6323619215020545,-1.777221789414842,0.8285087278899527,0.0016875723057351067,0.2064769799000264,0.2529433932240818,-0.4956013518739243,1.0,-0.5047655092380516,-0.0022309542800498777,-0.21695796557975924
1.2032499968086126,-0.669812115953488,-1.7014967440708324,0.7902071755081141,0.0015167580201211075,0.189887073394619,0.22441936863356232,-0.4935823173461299,1.0,-0.5067521635006567,-0.0022673965814560045,-0.2199357756824859
1.220157673831294,-0.7092922630257377,-1.6213518613259899,0.7495170859518864,0.0013341017425719933,0.17219182768133223,0.19885577648368902,-0.49169605604149347,1.0,-0.5085990640987765,-0.002277978112314589,-0.22042463526847844
1.2360423941032457,-0.7510381223103526,-1.5362920492589958,0.706179836166761,0.001140430737252621,0.1534736880366606,0.17576261403473836,-0.4899126254185935,1.0,-0.5103377457572222,-0.0022629825192990267,-0.2184850876407109
1.2509806364698215,-0.795373284612664,-1.4456350386533474,0.6598374220762753,0.0009365354328194242,0.13380912930952923,0.15472112324077752,-0.4882010002877011,1.0,-0.5120008807565277,-0.0022220106864774174,-0.21410776206360305
1.2650430994162754,-0.8427481551378412,-1.3484277329246948,0.609987789987274,0.0007231715621741576,0.11326884576944878,0.13536130101234806,-0.48652741126395926,1.0,-0.513623950194776,-0.002153870110066629,-0.20720144772163562
1.2782949681927671,-0.8938070230930519,-1.2433025042555377,0.5559082030978783,0.0005010625957861932,0.09191801822167556,0.11733925637117584,-0.48485231362507336,1.0,-0.5152483602460035,-0.0020563047950902533,-0.19756645016276447
1.290796228436129,-0.9495121377515401,-1.1282114230526887,0.49651354323864866,0.00027090276744083896,0.0698166276155387,0.0947272322732935,-0.4538677263189311,0.9393312996362146,-0.4855137879941331,-0.0018131296123881009,-0.17406167169717535
1.3026020034405572,-1.0113973209733023,-0.9998828973475323,0.4300665648249134,3.33595378071042e-05,0.047019792318584545,0.06705580151748497,-0.38077572083694483,0.7910137397743657,-0.41024590929973886,-0.0013962830888381806,-0.13399540380263963
1.3137628969853887,-1.0821666455550543,-0.8525383703248922,0.35349327171808376,-0.00021092384644581013,0.0235781109483624,0.03546365464373279,-0.24018142761571115,0.5007769371429338,-0.26058434836389915,-0.0007922648313872751,-0.07603594977758851
1.3243253235631907,-1.1674686992124645,-0.6740866555255884,0.2603515148761874,-0.00046132607720067524,-0.0004620073898880004,0.0,0.0,0.0,0.0,0.0,0.0
1.3243253235631907,-1.1674686992124645,-0.6740866555255884,0.2603515148761874,-0.00046132607720067524,-0.0004620073898880004,0.0,0.0,0.0,0.0,0.0,0.0
1.3243253235631907,-1.1674686992124645,-0.6740866555255884,0.2603515148761874,-0.00046132607720067524,-0.0004620073898880004,0.0,0.0,0.0,0.0,0.0,0.0
1.3243253816933043,-1.1840871664685997,-0.7461976711782783,0.3490809977586239,-0.0004613254720081586,-0.0004619492629163627,4.200092720946016e-07,-0.15388792115510336,-0.45177002680271905,0.6056579477671579,4.372715813089845e-09,4.1998657031969897e-07
1.3243254406748395,-1.2104236170090934,-0.7999596096454388,0.4291793867395034,-0.00046132485795149976,-0.00046189028456913834,4.5775579038935724e-07,-0.2358915366177981,-0.35108946397309027,0.5869810003830889,4.765694729693951e-09,4.5773104711910305e-07
1.3243255005274641,-1.2447727901651242,-0.8385010485987859,0.502069998821711,-0.00046132423482592925,-0.0004618304351798881,4.900529988353806e-07,-0.3070699513211972,-0.25899033358904544,0.5660602846877814,5.101940923080653e-09,4.900265092020024e-07
1.3243255612705966,-1.2860953160410693,-0.863462255545177,0.5683537316164726,-0.0004613236024292806,-0.00046176969533073673,4.99988650037467e-07,-0.36368007923243706,-0.1509712388483163,0.5146513178537827,5.205380981048586e-09,4.999616232296951e-07
1.324325622924251,-1.3336817463684003,-0.8757354735371191,0.628213379907758,-0.00046132296055318974,-0.00046170804500909554,5.398405525257482e-07,-0.43950806152282457,-0.0511145372233894,0.4906225985011516,5.620279091169433e-09,5.398113723004304e-07
1.3243256855090502,-1.3870442287777467,-0.875716928903837,0.6815573176554116,-0.0004613223089829485,-0.0004616454635927376,5.65941435290404e-07,-0.503331074050394,0.054975408683726024,0.44835566510975633,5.892015333068878e-09,5.659108452386142e-07
1.3243257490462474,-1.4458804951713549,-0.8634057341599808,0.7280823892763206,-0.0004613216474972969,-0.0004615819298297923,5.598542724619447e-07,-0.5375750791835152,0.1620770171986031,0.37549806173076417,5.828641910751264e-09,5.598240106330938e-07
1.3243258135577496,-1.5100842651860915,-0.8384034568447781,0.7672838819465694,-0.000461320975868149,-0.0004615174218147401,5.522524489927523e-07,-0.568645912193455,0.2695888505139173,0.29905706142884203,5.7494993390472745e-09,5.522225970761429e-07
1.3243258790661412,-1.5798014829139129,-0.7998137811767542,0.7984114239766293,-0.0004613202938603969,-0.0004614519169642575,4.895733836824039e-07,-0.5369535193768129,0.33545667318777195,0.2014968459668,5.096947656912029e-09,4.895469194402979e-07
1.3243259455947138,-1.655558130195858,-0.7459854459856545,0.8203397360372743,-0.0004613196012315408,-0.00046138539198783794,2.9569333271621727e-07,-0.3440212747005527,0.2603069708344464,0.08371430373187697,3.078462778411944e-09,2.956773491549336e-07
1.3243260131674952,-1.738543976553574,-0.6739162876977175,0.8312564240763788,-0.0004613188977314318,-0.00046131782285891923,0.0,0.0,0.0,0.0,0.0,0.0
1.3243260131674952,-1.738543976553574,-0.6739162876977175,0.8312564240763788,-0.0004613188977314318,-0.00046131782285891923,0.0,0.0,0.0,0.0,0.0,0.0
1.3243260131674952,-1.738543976553574,-0.6739162876977175,0.8312564240763788,-0.0004613188977314318,-0.00046131782285891923,0.0,0.0,0.0,0.0,0.0,0.0
1.3243260131594539,-1.633691621514377,-0.8043522136263783,0.8568714028527847,-0.00046131885284678305,-0.0004613178313965746,-6.201598686711435e-11,0.7654503550568923,-0.8958901958767613,0.1306815332934536,3.454008421826523e-10,-6.582699271969492e-11
1.324326013151379,-1.5390704747017667,-0.9081457904458495,0.866075240880912,-0.00046131880796171566,-0.00046131783996572565,-6.702834489431379e-11,0.7559730016528939,-0.7803571156893063,0.02464427140494243,3.7179052391872235e-10,-7.11165169125792e-11
1.3243260131432704,-1.4510106876823856,-0.9931960051997032,0.8630970766295811,-0.0004613187630764805,-0.00046131784856721106,-7.105650789113307e-11,0.7479637406397885,-0.676035849818706,-0.07165326495636003,3.924689293641354e-10,-7.535927164316732e-11
1.324326013135127,-1.3678336929859432,-1.0632467647765709,0.8500022495100636,-0.0004613187181911018,-0.0004613178572018453,-7.473943408876097e-11,0.7431736403698832,-0.5817916602126242,-0.16109432850515618,4.1108569951742143e-10,-7.923314041700595e-11
1.3243260131269496,-1.2886581978563092,-1.1204431310061795,0.8280545286383741,-0.00046131867330550234,-0.00046131786586926993,-7.733440491611782e-11,0.730059099161084,-0.484419008710427,-0.2453437008966819,4.235748946735882e-10,-8.195257303972409e-11
1.3243260131187375,-1.213054939701202,-1.1660811225368386,0.7981206700422621,-0.00046131862841970674,-0.00046131787457018135,-7.9669092598273e-11,0.715094047726287,-0.3891706871679437,-0.32561931459396165,4.345184153275184e-10,-8.439285385593575e-11
1.3243260131104904,-1.140881660395429,-1.2009645621085747,0.760862238294143,-0.00046131858353383063,-0.00046131788330449773,-8.145284427519407e-11,0.6940086695015133,-0.2929053625715792,-0.40079376618527107,4.42372748855847e-10,-8.624662665757071e-11
1.3243260131022083,-1.0721936229591877,-1.2255922112555844,0.7168332580261777,-0.0004613185386477144,-0.00046131789207223004,-8.223131646058556e-11,0.6623229727670525,-0.19475624632378633,-0.4672555466647088,4.447170146516649e-10,-8.703707662165457e-11
1.3243260130938908,-1.0071883558351644,-1.2402627848316492,0.6665299724924159,-0.0004613184937614168,-0.00046131790087421685,-8.145519169568828e-11,0.6160350494142113,-0.09607399907899482,-0.5196541144929138,4.3865363830841824e-10,-8.61817171373815e-11
1.3243260130855377,-0.9461673894686955,-1.2451348177693875,0.610412447077882,-0.00046131844887494676,-0.00046131790971018423,-7.627122979489518e-11,0.5373640975272886,-0.0026140873867584666,-0.5344638030357352,4.0903101965984837e-10,-8.066731536280958e-11
1.3243260130771488,-0.8895078899037673,-1.2402578875250307,0.548907425275724,-0.00046131840398829784,-0.00046131791858094307,-7.585916341054793e-11,0.48850713935143,0.09041549817287867,-0.5786392572305619,4.049926689215438e-10,-8.019861239566062e-11
1.324326013068724,-0.8376420300875334,-1.2255823394317735,0.48239742536629027,-0.0004613183591015187,-0.0004613179274858488,-7.685585854149836e-11,0.4491624836745655,0.17708465781224414,-0.6259612131005509,4.0863584667722744e-10,-8.122026988932664e-11
1.3243260130602628,-0.791044738662856,-1.200949521681351,0.41119872419124776,-0.0004613183142145181,-0.00046131793642575735,-7.60838350575739e-11,0.3914451099105693,0.2682479796140032,-0.6594112857868158,4.027428993143599e-10,-8.037371202670076e-11
1.3243260130517653,-0.7502324697763492,-1.1660605025199557,0.3355288441646119,-0.0004613182693273181,-0.0004613179454007778,-7.851456909635221e-11,0.34693958864189023,0.37129392056463606,-0.7179439376103235,4.13846045840549e-10,-8.290919895137875e-11
1.3243260130432308,-0.7157778586787749,-1.1204160740227043,0.2554612125839828,-0.00046131822443994016,-0.00046131795441100654,-7.840177983777172e-11,0.2838528690682796,0.4710405951460136,-0.7546055538259648,4.1147349529241795e-10,-8.275790011078767e-11
1.3243260130346595,-0.688349099576839,-1.063211380886998,0.1708591683393285,-0.0004613181795524319,-0.0004613179634570571,-7.521641419404756e-11,0.20709713926992696,0.5550087612514469,-0.7618308601679604,3.930815909093201e-10,-7.936597268892356e-11
1.3243260130260508,-0.6687920705648565,-0.9931475756586262,0.08126974212024062,-0.00046131813466467335,-0.0004613179725386839,-6.866123446350921e-11,0.12163564426174665,0.6140546028106634,-0.7354402532927049,3.5728715223337053e-10,-7.242100585315274e-11
1.3243260130174048,-0.658297441685091,-0.908069755570672,-0.014271298833282153,-0.0004613180897767379,-0.00046131798165634696,-5.608636564930341e-11,0.03812713742943546,0.6020523773781019,-0.6399761442484673,2.9065515654458974e-10,-5.913726535326813e-11
1.324326013008721,-0.6587681921104063,-0.8041824436763846,-0.11765645229512715,-0.00046131804488861643,-0.00046131799081052606,-3.2168030545439966e-11,-0.015988748225334953,0.41016135123553554,-0.3940563887963502,1.6609277088050848e-10,-3.390721538934161e-11
1.3243260129999996,-0.6737757605270952,-0.6740077690106596,-0.23279215054410568,-0.0004613180000003367,-0.00046131800000083945,0.0,0.0,0.0,0.0,0.0,0.0
1.3243260129999996,-0.6737757605270952,-0.6740077690106596,-0.23279215054410568,-0.0004613180000003367,-0.00046131800000083945,0.0,0.0,0.0,0.0,0.0,0.0
1.2440207722702061,-0.6299692928792545,-0.6338901657302246,-0.2180412538366337,-0.0028994642302040516,-0.00042420716316191634,-0.3422838601184256,0.18671567021519303,0.17099267724917502,0.0628725325938595,-0.01039207523224194,0.0001581769803566382
1.1637155315404124,-0.5861628252314138,-0.5937725624497896,-0.20329035712916171,-0.005337610460407767,-0.0003870963263229932,-0.5520300800226192,0.30113212564188185,0.27577432740324115,0.10139984160224405,-0.01676017712336996,0.00025510537100347175
1.083410290810619,-0.5423563575835731,-0.5536549591693547,-0.18853946042168973,-0.007775756690611482,-0.00034998548948407006,-0.6737032805174297,0.3675047941333381,0.33655787207544713,0.12374942671345107,-0.020454295370290095,0.0003113332616143179
1.0031050500808254,-0.49854988993573246,-0.5135373558889197,-0.17378856371421775,-0.010213902920815197,-0.000312874652645147,-0.7734242878042346,0.42190255248410513,0.3863748923931909,0.14206671540700178,-0.023481923402768383,0.0003574165557704947
0.9227998093510318,-0.4547434222878918,-0.4734197526084847,-0.15903766700674576,-0.012652049151018913,-0.00027576381580622384,-0.8579340939275506,0.468002608398548,0.4285929449704717,0.1575899292043177,-0.026047724380915047,0.0003964704157406554
0.8424945686212382,-0.41093695464005114,-0.4333021493280497,-0.14428677029927378,-0.015090195381222627,-0.00023865297896730073,-0.933456932722725,0.5092002782428586,0.46632143264902226,0.1714623687113619,-0.0283406721764681,0.00043137119833802564
0.7621893278914447,-0.36713048699221046,-0.39318454604761477,-0.1295358735918018,-0.01752834161142634,-0.00020154214212837762,-0.9852950739638222,0.5374779577139054,0.49221789925825526,0.18098427612370183,-0.029914529218663093,0.0004553267557107301
0.681884087161651,-0.3233240193443698,-0.35306694276717976,-0.11478497688432983,-0.019966487841630055,-0.0001644313052894545,-1.0,0.5454994873278337,0.4995639501962316,0.1836853556930976,-0.030360985261316233,0.00046212222890647307
0.6015788464318574,-0.2795175516965291,-0.31294933948674475,-0.10003408017685786,-0.02240463407183377,-0.0001273204684505314,-0.9852950739638222,0.5374779577139054,0.49221789925825526,0.18098427612370183,-0.029914529218663114,0.0004553267557107301
0.5212736057020639,-0.2357110840486884,-0.2728317362063098,-0.08528318346938588,-0.024842780302037487,-9.020963161160829e-05,-0.933456932722725,0.509200278242859,0.46632143264902226,0.1714623687113619,-0.02834067217646811,0.00043137119833802564
0.4409683649722703,-0.19190461640084772,-0.23271413292587484,-0.07053228676191389,-0.0272809265322412,-5.309879477268518e-05,-0.8579340939275506,0.46800260839854807,0.4285929449704717,0.1575899292043177,-0.026047724380915037,0.0003964704157406554
0.3606631242424767,-0.1480981487530071,-0.19259652964543983,-0.05578139005444191,-0.029719072762444915,-1.5987957933762012e-05,-0.7734242878042346,0.4219025524841049,0.3863748923931909,0.14206671540700178,-0.023481923402768386,0.000357416555770495
0.2803578835126832,-0.1042916811051664,-0.15247892636500482,-0.041030493346969926,-0.03215721899264863,2.11228789051611e-05,-0.6718703066430439,0.36650490782457534,0.3356421844061525,0.12341273625535837,-0.020398644477505487,0.0003104862036419594
0.2000526427828897,-0.060485213457325715,-0.11236132308456992,-0.026279596639497943,-0.034595365222852344,5.823371574408421e-05,-0.5474659520996216,0.29864239619978794,0.27349425362882746,0.10056147814127943,-0.016621605702769066,0.00025299618603468144
0.11974740205309597,-0.01667874580948503,-0.07224371980413491,-0.01152869993202596,-0.03703351145305606,9.534455258300727e-05,-0.3395527060698137,0.1852258270818619,0.16962829114405598,0.06237085959098758,-0.010309154704425654,0.0001569148533602066
0.03944216132330245,0.027127721838355705,-0.0321261165236999,0.003222196775446035,-0.039471657683259775,0.00013245538942193043,0.0,0.0,0.0,0.0,0.0,0.0
